X: 11
T:Lad O`Beirne`s
M:C
L:1/8
K:G
DG ~G2 DGBG| AcBG AGEG| DG ~G2 DGBd| (e2 e)g edge|
dB ~B2 GBdB| cE ~E2 GEDB,| DEGA B2 Bc| dBAc BG G2:|
|: Bdd^c d2 (3Bcd| edgd edge| dB ~B2 dBGB| cE ~E2 GEDG|
Bdd^c d2 ef| g2 af (3gfe dB| DEGA B2 Bc| dBAc BG G2 :|
